resources/SLDS/icons/standard/scheduling_constraint.svg

<svg data-name="Layer 1" xmlns="http://www.w3.org/2000/svg" width="100" height="100" viewBox="0 0 100 100"><path d="M76,42H24a2,2,0,0,0-2,2V74a6,6,0,0,0,6,6H72a6,6,0,0,0,6-6V44A2,2,0,0,0,76,42ZM50,46.1a14.88,14.88,0,0,1,8.24,2.5L37.6,69.24A14.78,14.78,0,0,1,35.1,61,14.94,14.94,0,0,1,50,46.1Zm0,29.8a14.74,14.74,0,0,1-8.13-2.44L62.46,52.87A14.74,14.74,0,0,1,64.9,61,14.94,14.94,0,0,1,50,75.9Z" fill="#fff"/><path d="M72,26H67V24a4,4,0,0,0-8,0v2H41V24a4,4,0,0,0-8,0v2H28a6,6,0,0,0-6,6v2a2,2,0,0,0,2,2H76a2,2,0,0,0,2-2V32A6,6,0,0,0,72,26Z" fill="#fff"/></svg>

<svg xmlns="http://www.w3.org/2000/svg" height="100" width="100" viewBox="0 0 100 100" fill="#fff"><path d="M76 42H24a2 2 0 0 0-2 2v30a6 6 0 0 0 6 6h44a6 6 0 0 0 6-6V44a2 2 0 0 0-2-2zm-26 4.1a14.9 14.9 0 0 1 8.2 2.5L37.6 69.2a14.8 14.8 0 0 1-2.5-8.2A15 15 0 0 1 50 46.1zm0 29.8a14.7 14.7 0 0 1-8.1-2.4l20.6-20.6a14.7 14.7 0 0 1 2.4 8.1A15 15 0 0 1 50 75.9zM72 26h-5v-2a4 4 0 0 0-8 0v2H41v-2a4 4 0 0 0-8 0v2h-5a6 6 0 0 0-6 6v2a2 2 0 0 0 2 2h52a2 2 0 0 0 2-2v-2a6 6 0 0 0-6-6z"/></svg>
